X: 20544
T: LAILSON'S RIDE
C:
%R: jig
B: Elias Howe "The Musician's Companion" 1843 p.54 #4
S: http://imslp.org/wiki/The_Musician's_Companion_(Howe,_Elias)
Z: 2015 John Chambers <jc:trillian.mit.edu>
M: 6/8
L: 1/8
K: G
% - - - - - - - - - - - - - - - - - - - - - - - - -
d |\
dBd cBA | G2G G2g | e2g d2g | e2c B2d |\
dBd cBA | G2G G2g | fed ed^c | d2d d2 :|
|: d |\
dcB Bcd | cde e2c | cBA ABc | Bcd d2g |\
e2g d2g | c2g B2g | ded cBA | G2G G2 :|
% - - - - - - - - - - - - - - - - - - - - - - - - -

%%sep 1 1 500

